X:509
T:Coalminer's Reel, The
R:reel
H:Also in G, #745. Different version, see #747.
Z:id:hn-reel-509
M:C|
K:D
A,DFD EDB,D|ADFD EDB,D|A,DFD EDB,D|dBAF E2DB,|
A,DFD EDB,D|ADFD EDB,D|A,DFD EDB,D|1 dBAF D2DB,:|2 dBAF D2 (3ABc||
|:~d3B ABdB|AGFD EDB,D|~d3B ABde|fd~d2 efde|
fd~d2 efdB|AGFD EDB,D|A,DFD EDB,D|1 dBAF D2 (3ABc:|2 dBAF D2DB,||
